X:910
M:C
L:1/8
K:D
g|f>dd>f g>fe>g|f>dd>f a/g/f/e/ d>g|f>dd>f g>f ef/g/|a>gf>e d>ef>d|
(3efg (3fga e>FE>F|D/D/D D>d A>FD||

